X:3089
T:Nu bor du i det fjerne
C:F. A. Schulz
F:http://abc.musicaviva.com/tunes/schulz-f-a/schulz-nu-bor-du-i-det.abc
M:2/4
L:1/8
Q:1/4=74
K:G
D|"G"B>A Bc|"G"d2Bd|"C"e"G"d "D7"c"G"B|
w:Nu bor du i det fjer-ne, nu bor du i det
"D"d>c "G"Bd/B/|"D7"A>d "A"^cB/c/|"D"d2zD|
w:fjer--ne, som_ var mit hjer-te_ n\aer. Kun
"D7"c>d "G"BG|"C"e2"G"dd/c/|"G"B>d "D7"cF|"G"G4|]
w:nat-tens tav-se stjer-ne min_ hil-sen til dig b\aer!
W:
W:Nu bor du i det fjerne,
W:som var mit hjerte n\aer.
W:Kun nattens tavse stjerne
W:min hilsen til dig b\aer!
W:
W:
W:  From Musica Viva - http://www.musicaviva.com
W:  the Internet center for free sheet music downloads.


